sacher.svg

<?xml version="1.0" encoding="UTF-8" standalone="no"?>
<!-- Created with Inkscape (http://www.inkscape.org/) -->

<svg
   width="1920"
   height="1080"
   viewBox="0 0 1920 1080"
   version="1.1"
   id="svg5"
   inkscape:version="1.1.2 (b8e25be833, 2022-02-05)"
   sodipodi:docname="sacher.svg"
   xmlns:inkscape="http://www.inkscape.org/namespaces/inkscape"
   xmlns:sodipodi="http://sodipodi.sourceforge.net/DTD/sodipodi-0.dtd"
   xmlns:xlink="http://www.w3.org/1999/xlink"
   xmlns="http://www.w3.org/2000/svg"
   xmlns:svg="http://www.w3.org/2000/svg">
  <sodipodi:namedview
     id="namedview7"
     pagecolor="#505050"
     bordercolor="#eeeeee"
     borderopacity="1"
     inkscape:pageshadow="0"
     inkscape:pageopacity="0"
     inkscape:pagecheckerboard="0"
     inkscape:document-units="px"
     showgrid="false"
     inkscape:zoom="0.70710678"
     inkscape:cx="280.72139"
     inkscape:cy="408.70772"
     inkscape:window-width="1304"
     inkscape:window-height="745"
     inkscape:window-x="54"
     inkscape:window-y="-8"
     inkscape:window-maximized="1"
     inkscape:current-layer="layer1"
     inkscape:snap-intersection-paths="false" />
  <defs
     id="defs2">
    <linearGradient
       inkscape:collect="always"
       id="linearGradient5922">
      <stop
         style="stop-color:#e6e6e6;stop-opacity:1"
         offset="0"
         id="stop5916" />
      <stop
         style="stop-color:#e6e6e6;stop-opacity:1"
         offset="0.94503659"
         id="stop5918" />
      <stop
         style="stop-color:#999999;stop-opacity:1"
         offset="1"
         id="stop5920" />
    </linearGradient>
    <inkscape:path-effect
       effect="powerclip"
       id="path-effect5626"
       is_visible="true"
       lpeversion="1"
       inverse="true"
       flatten="false"
       hide_clip="false"
       message="クリップをパスに変換した後に残らない場合には&lt;b&gt;フィル/ストローク&lt;/b&gt;ダイアログのフィルルールで evenodd を使用します。" />
    <inkscape:path-effect
       effect="powerclip"
       id="path-effect5609"
       is_visible="true"
       lpeversion="1"
       inverse="true"
       flatten="false"
       hide_clip="false"
       message="クリップをパスに変換した後に残らない場合には&lt;b&gt;フィル/ストローク&lt;/b&gt;ダイアログのフィルルールで evenodd を使用します。" />
    <inkscape:path-effect
       effect="powerclip"
       id="path-effect5601"
       is_visible="true"
       lpeversion="1"
       inverse="true"
       flatten="false"
       hide_clip="false"
       message="クリップをパスに変換した後に残らない場合には&lt;b&gt;フィル/ストローク&lt;/b&gt;ダイアログのフィルルールで evenodd を使用します。" />
    <inkscape:path-effect
       effect="powerclip"
       id="path-effect5514"
       is_visible="true"
       lpeversion="1"
       inverse="true"
       flatten="false"
       hide_clip="false"
       message="クリップをパスに変換した後に残らない場合には&lt;b&gt;フィル/ストローク&lt;/b&gt;ダイアログのフィルルールで evenodd を使用します。" />
    <inkscape:path-effect
       effect="powerclip"
       id="path-effect4528"
       is_visible="true"
       lpeversion="1"
       inverse="true"
       flatten="false"
       hide_clip="false"
       message="クリップをパスに変換した後に残らない場合には&lt;b&gt;フィル/ストローク&lt;/b&gt;ダイアログのフィルルールで evenodd を使用します。" />
    <linearGradient
       inkscape:collect="always"
       id="linearGradient2468">
      <stop
         style="stop-color:#280b0b;stop-opacity:1;"
         offset="0"
         id="stop2462" />
      <stop
         style="stop-color:#280b0b;stop-opacity:1"
         offset="0.197868"
         id="stop2464" />
      <stop
         style="stop-color:#280b0b;stop-opacity:0;"
         offset="1"
         id="stop2466" />
    </linearGradient>
    <linearGradient
       inkscape:collect="always"
       id="linearGradient3948">
      <stop
         style="stop-color:#ffffff;stop-opacity:1;"
         offset="0"
         id="stop3944" />
      <stop
         style="stop-color:#ffffff;stop-opacity:0;"
         offset="1"
         id="stop3946" />
    </linearGradient>
    <filter
       inkscape:collect="always"
       style="color-interpolation-filters:sRGB"
       id="filter863"
       x="-0.034412308"
       y="-0.079319152"
       width="1.0688246"
       height="1.1586383"
       inkscape:label="light blur">
      <feGaussianBlur
         inkscape:collect="always"
         stdDeviation="6.3662379"
         id="feGaussianBlur865" />
    </filter>
    <filter
       inkscape:collect="always"
       style="color-interpolation-filters:sRGB"
       id="filter867"
       x="-0.037440579"
       y="-0.072155932"
       width="1.0748812"
       height="1.1443119"
       inkscape:label="shade blur">
      <feGaussianBlur
         inkscape:collect="always"
         stdDeviation="5.8391051"
         id="feGaussianBlur869" />
    </filter>
    <clipPath
       clipPathUnits="userSpaceOnUse"
       id="clipPath901">
      <path
         id="path903"
         style="display:none;fill:#502d16"
         d="m 733.62005,397.54834 c 0,37.67554 0.30802,124.47197 0.19993,220.82413 -0.0209,18.66208 -39.85392,14.5691 -58.26106,15.51904 -20.99142,1.0833 -63.14011,-23.06374 -63.16416,-47.52273 -0.0909,-92.51381 -0.36159,-201.10361 -0.3616,-238.00167 0,-49.04259 135.21634,-67.95432 211.06947,-45.08281 -48.4661,65.22203 -89.48258,45.22147 -89.48258,94.26404 z"
         sodipodi:nodetypes="ssssscs" />
      <path
         id="lpe_path-effect905"
         style="fill:#502d16"
         class="powerclip"
         d="m 589.22111,217.86666 h 520.92079 v 416.0056 H 589.22111 Z m 144.39894,179.68168 c 0,-49.04257 41.01648,-29.04201 89.48258,-94.26404 -75.85313,-22.87151 -211.06947,-3.95978 -211.06947,45.08281 1e-5,36.89806 0.2707,145.48786 0.3616,238.00167 0.024,24.45899 42.17274,48.60603 63.16416,47.52273 18.40714,-0.94994 58.24016,3.14304 58.26106,-15.51904 0.10809,-96.35216 -0.19993,-183.14859 -0.19993,-220.82413 z" />
    </clipPath>
    <clipPath
       clipPathUnits="userSpaceOnUse"
       id="clipPath1251">
      <path
         style="display:none;fill:#000000;fill-opacity:1;stroke:#000000;stroke-width:1px;stroke-linecap:butt;stroke-linejoin:miter;stroke-opacity:1"
         d="m 612.37472,537.57825 c 64.20884,-4.78151 214.1433,-37.569 214.1433,-37.569 l -94.26404,112.02393 -131.14997,-1.36615 z"
         id="path1253"
         sodipodi:nodetypes="ccccc" />
      <path
         id="lpe_path-effect1255"
         style="fill:#000000;fill-opacity:1;stroke:#000000;stroke-width:1px;stroke-linecap:butt;stroke-linejoin:miter;stroke-opacity:1"
         class="powerclip"
         d="M 590.16839,217.8608 H 1110.0159 V 630.31984 H 590.16839 Z m 22.20633,319.71745 -11.27071,73.08878 131.14997,1.36615 94.26404,-112.02393 c 0,0 -149.93446,32.78749 -214.1433,37.569 z" />
    </clipPath>
    <filter
       style="color-interpolation-filters:sRGB"
       id="filter850"
       inkscape:label="filling"
       x="0"
       y="0"
       width="1"
       height="1">
      <feTurbulence
         id="feTurbulence854"
         result="result1"
         baseFrequency="0.011000000000000003 0.047000000000000035"
         numOctaves="10"
         type="turbulence" />
      <feComponentTransfer
         id="feComponentTransfer858">
        <feFuncR
           id="feFuncR860"
           type="discrete"
           tableValues="0 0.03 0.05" />
        <feFuncG
           id="feFuncG862"
           type="discrete"
           tableValues="0" />
        <feFuncB
           id="feFuncB864"
           type="discrete"
           tableValues="0" />
        <feFuncA
           id="feFuncA866"
           type="identity" />
      </feComponentTransfer>
      <feComposite
         in2="SourceGraphic"
         id="feComposite856"
         operator="atop" />
    </filter>
    <clipPath
       clipPathUnits="userSpaceOnUse"
       id="clipPath1251-9">
      <path
         style="display:none;fill:#000000;fill-opacity:1;stroke:#000000;stroke-width:1px;stroke-linecap:butt;stroke-linejoin:miter;stroke-opacity:1"
         d="m 612.37472,537.57825 c 64.20884,-4.78151 214.1433,-37.569 214.1433,-37.569 l -94.26404,112.02393 -131.14997,-1.36615 z"
         id="path1253-3"
         sodipodi:nodetypes="ccccc" />
      <path
         id="lpe_path-effect1255-7"
         style="fill:#000000;fill-opacity:1;stroke:#000000;stroke-width:1px;stroke-linecap:butt;stroke-linejoin:miter;stroke-opacity:1"
         class="powerclip"
         d="M 590.16839,217.8608 H 1110.0159 V 630.31984 H 590.16839 Z m 22.20633,319.71745 -11.27071,73.08878 131.14997,1.36615 94.26404,-112.02393 c 0,0 -149.93446,32.78749 -214.1433,37.569 z" />
    </clipPath>
    <clipPath
       clipPathUnits="userSpaceOnUse"
       id="clipPath901-7">
      <path
         id="path903-3"
         style="display:none;fill:#502d16"
         d="m 733.62005,397.54834 c 0,37.67554 0.30802,124.47197 0.19993,220.82413 -0.0209,18.66208 -39.85392,14.5691 -58.26106,15.51904 -20.99142,1.0833 -63.14011,-23.06374 -63.16416,-47.52273 -0.0909,-92.51381 -0.36159,-201.10361 -0.3616,-238.00167 0,-49.04259 135.21634,-67.95432 211.06947,-45.08281 -48.4661,65.22203 -89.48258,45.22147 -89.48258,94.26404 z"
         sodipodi:nodetypes="ssssscs" />
      <path
         id="lpe_path-effect905-3"
         style="fill:#502d16"
         class="powerclip"
         d="m 589.22111,217.86666 h 520.92079 v 416.0056 H 589.22111 Z m 144.39894,179.68168 c 0,-49.04257 41.01648,-29.04201 89.48258,-94.26404 -75.85313,-22.87151 -211.06947,-3.95978 -211.06947,45.08281 1e-5,36.89806 0.2707,145.48786 0.3616,238.00167 0.024,24.45899 42.17274,48.60603 63.16416,47.52273 18.40714,-0.94994 58.24016,3.14304 58.26106,-15.51904 0.10809,-96.35216 -0.19993,-183.14859 -0.19993,-220.82413 z" />
    </clipPath>
    <radialGradient
       inkscape:collect="always"
       xlink:href="#linearGradient3948"
       id="radialGradient4577-3"
       cx="746.04541"
       cy="204.77701"
       fx="746.04541"
       fy="204.77701"
       r="221.99864"
       gradientTransform="matrix(-1.4959759,-0.01955733,0.00875985,-0.67001853,1265.4078,884.8899)"
       gradientUnits="userSpaceOnUse" />
    <radialGradient
       inkscape:collect="always"
       xlink:href="#linearGradient2468"
       id="radialGradient6137-5"
       cx="930.92676"
       cy="534.57501"
       fx="930.92676"
       fy="534.57501"
       r="189.0024"
       gradientTransform="matrix(1.2870974,-0.52546982,0.28760478,0.70446723,-1019.2761,1104.5686)"
       gradientUnits="userSpaceOnUse" />
    <clipPath
       clipPathUnits="userSpaceOnUse"
       id="clipPath4524">
      <path
         style="display:none;fill:#502d16;fill-opacity:1;stroke:none;stroke-width:1px;stroke-linecap:butt;stroke-linejoin:miter;stroke-opacity:1"
         d="M 249,755 C 199,763 20,744.98264 20,827 v 133 c 0,28.99929 5.981154,86.6783 39,102 25.628067,11.8922 79.75266,6.3796 80,-28 l 1,-139 c 1.50963,-61.69186 75.09155,-104.39371 109,-140 z"
         id="path4526"
         sodipodi:nodetypes="csssscc" />
    </clipPath>
    <clipPath
       clipPathUnits="userSpaceOnUse"
       id="clipPath5605">
      <path
         style="display:none;fill:#000000;stroke:#000000;stroke-width:1px;stroke-linecap:butt;stroke-linejoin:miter;stroke-opacity:1"
         d="m 20,956 c 22,-5 214.5,-60 214.5,-60 L 138,1033 28.5,1014.5 Z"
         id="path5607" />
      <path
         id="lpe_path-effect5609"
         style="fill:#000000;stroke:#000000;stroke-width:1px;stroke-linecap:butt;stroke-linejoin:miter;stroke-opacity:1"
         class="powerclip"
         d="M -1.4598763,675 H 518.38762 v 376.459 H -1.4598763 Z M 20,956 28.5,1014.5 138,1033 234.5,896 c 0,0 -192.5,55 -214.5,60 z" />
    </clipPath>
    <clipPath
       clipPathUnits="userSpaceOnUse"
       id="clipPath5622">
      <path
         style="display:none;fill:#502d16;fill-opacity:1;stroke:none;stroke-width:1px;stroke-linecap:butt;stroke-linejoin:miter;stroke-opacity:1"
         d="M 249,755 C 199,763 20,744.98264 20,827 v 133 c 0,28.99929 5.981154,86.6783 39,102 25.628067,11.8922 79.75266,6.3796 80,-28 l 1,-139 c 1.50963,-61.69186 75.09155,-104.39371 109,-140 z"
         id="path5624"
         sodipodi:nodetypes="csssscc" />
      <path
         id="lpe_path-effect5626"
         style="display:block;fill:#502d16;fill-opacity:1;stroke:none;stroke-width:1px;stroke-linecap:butt;stroke-linejoin:miter;stroke-opacity:1"
         class="powerclip"
         d="M -1.4603945,675.00013 H 518.38709 V 1056.7822 H -1.4603945 Z M 249,755 C 199,763 20,744.98264 20,827 v 133 c 0,28.99929 5.981154,86.6783 39,102 25.628067,11.8922 79.75266,6.3796 80,-28 l 1,-139 c 1.50963,-61.69186 75.09155,-104.39371 109,-140 z" />
    </clipPath>
    <radialGradient
       inkscape:collect="always"
       xlink:href="#linearGradient5922"
       id="radialGradient6500"
       cx="217.83154"
       cy="945.31842"
       fx="217.83154"
       fy="945.31842"
       r="437.6991"
       gradientTransform="matrix(0.97884602,-0.01266775,0.00315448,0.40647978,213.31444,115.30974)"
       gradientUnits="userSpaceOnUse" />
  </defs>
  <g
     inkscape:label="Layer 1"
     inkscape:groupmode="layer"
     id="layer1"
     style="cursor:pointer">
    <ellipse
       style="fill:url(#radialGradient6500);fill-opacity:1;stroke:none;stroke-width:1.10979"
       id="path5652"
       cx="464.56915"
       cy="499.92447"
       rx="374.05945"
       ry="173.24117"
       inkscape:export-filename="C:\Users\click\OneDrive\画像\sacher.webp"
       inkscape:export-xdpi="96"
       inkscape:export-ydpi="96" />
    <path
       style="fill:#502d16;fill-rule:evenodd;filter:url(#filter850)"
       sodipodi:type="inkscape:offset"
       inkscape:radius="-0.00012607352"
       inkscape:original="M 258.46289 680 C 257.85942 680.004 257.25498 680.00797 256.64844 680.01367 C 120.58003 681.17625 33.860381 736.98346 15.488281 776.72461 C -0.31456875 810.90816 3.9932869 802.51466 4.3105469 851.18555 C 4.6019569 895.88939 -2.3330937 932.63626 35.285156 978.29688 C 68.894126 1019.0912 140.85312 1045.4559 256.64844 1046.4453 C 257.25498 1046.4453 257.85942 1046.455 258.46289 1046.459 C 259.06637 1046.459 259.67276 1046.4493 260.2793 1046.4453 C 376.07462 1045.4559 448.03358 1019.0912 481.64258 978.29688 C 519.26088 932.63626 512.32579 895.88939 512.61719 851.18555 C 512.93449 802.51466 517.24225 810.90816 501.43945 776.72461 C 483.06735 736.98346 396.34771 681.17625 260.2793 680.01367 C 259.67276 680.00867 259.06637 680.0037 258.46289 680 z "
       xlink:href="#path31-88"
       id="path4320"
       inkscape:href="#path31-88"
       d="m 258.46289,680 c -0.60347,0.004 -1.20791,0.008 -1.81445,0.0137 -136.06841,1.16258 -222.788059,56.96979 -241.160159,96.71094 -15.80284975,34.18355 -11.4949941,25.79005 -11.1777341,74.46094 0.29141,44.70384 -6.6436406,81.45071 30.9746091,127.11133 33.60897,40.79432 105.567964,67.15902 221.363284,68.14842 0.60654,0 1.21098,0.01 1.81445,0.014 0.60348,0 1.20987,-0.01 1.81641,-0.014 115.79532,-0.9894 187.75428,-27.3541 221.36328,-68.14842 37.6183,-45.66062 30.68321,-82.40749 30.97461,-127.11133 0.3173,-48.67089 4.62506,-40.27739 -11.17774,-74.46094 -18.3721,-39.74115 -105.09174,-95.54836 -241.16015,-96.71094 -0.60654,-0.005 -1.21293,-0.01 -1.81641,-0.0137 z"
       clip-path="url(#clipPath5605)"
       inkscape:path-effect="#path-effect5609"
       inkscape:export-filename="C:\Users\click\OneDrive\画像\sacher.webp"
       inkscape:export-xdpi="96"
       inkscape:export-ydpi="96"
       transform="translate(207.88939,-438.40621)" />
    <g
       id="g5620"
       clip-path="url(#clipPath5622)"
       inkscape:path-effect="#path-effect5626"
       inkscape:export-filename="C:\Users\click\OneDrive\画像\sacher.webp"
       inkscape:export-xdpi="96"
       inkscape:export-ydpi="96"
       transform="translate(207.88939,-438.40621)">
      <path
         id="path31-88"
         style="fill:#28170b;fill-rule:evenodd"
         d="m 258.46237,680.00013 c -0.60347,0.004 -1.20791,0.008 -1.81445,0.0137 -136.06841,1.16258 -222.78806,56.96979 -241.16016,96.71094 -15.80285,34.18355 -11.49499,25.79005 -11.17773,74.46094 0.29141,44.70384 -6.64364,81.45068 30.97461,127.11129 33.60897,40.7943 105.56796,67.1591 221.36328,68.1485 0.60654,0 1.21098,0.01 1.81445,0.014 0.60348,0 1.20987,-0.01 1.81641,-0.014 115.79532,-0.9894 187.75427,-27.3542 221.36327,-68.1485 37.6183,-45.66061 30.6832,-82.40745 30.9746,-127.11129 0.3173,-48.67089 4.6251,-40.27739 -11.1777,-74.46094 -18.3721,-39.74115 -105.09176,-95.54836 -241.16017,-96.71094 -0.60654,-0.005 -1.21293,-0.01 -1.81641,-0.0137 z"
         sodipodi:nodetypes="ssssssscssscs"
         inkscape:original-d="m 258.46237,680.00013 c -0.60347,0.004 -1.20791,0.008 -1.81445,0.0137 -136.06841,1.16258 -222.78806,56.96979 -241.16016,96.71094 -15.80285,34.18355 -11.49499,25.79005 -11.17773,74.46094 0.29141,44.70384 -6.64364,81.45068 30.97461,127.11129 33.60897,40.7943 105.56796,67.1591 221.36328,68.1485 0.60654,0 1.21098,0.01 1.81445,0.014 0.60348,0 1.20987,-0.01 1.81641,-0.014 115.79532,-0.9894 187.75427,-27.3542 221.36327,-68.1485 37.6183,-45.66061 30.6832,-82.40745 30.9746,-127.11129 0.3173,-48.67089 4.6251,-40.27739 -11.1777,-74.46094 -18.3721,-39.74115 -105.09176,-95.54836 -241.16017,-96.71094 -0.60654,-0.005 -1.21293,-0.01 -1.81641,-0.0137 z" />
      <ellipse
         style="mix-blend-mode:normal;fill:url(#radialGradient4577-3);fill-opacity:1;stroke-width:1.06635;filter:url(#filter863)"
         id="path3665-2"
         cx="258.37787"
         cy="793.88837"
         rx="221.99864"
         ry="96.313255" />
      <path
         id="path5631-8"
         style="fill:url(#radialGradient6137-5);fill-opacity:1;filter:url(#filter867)"
         d="m 494.13649,936.3672 c -3.8716,36.0085 -63.7657,85.8799 -144.52215,93.4333 -219.08959,20.4922 -227.16792,-0.9219 -227.16792,-37.13799 -1e-5,-36.21607 121.3204,-44.211 199.67573,-65.16561 88.10891,-23.56302 192.50654,-181.72021 172.01434,8.8703 z"
         sodipodi:nodetypes="sssss"
         inkscape:original-d="m 494.13649,936.3672 c -3.8716,36.0085 -63.7657,85.8799 -144.52215,93.4333 -219.08959,20.4922 -227.16792,-0.9219 -227.16792,-37.13799 -1e-5,-36.21607 121.3204,-44.211 199.67573,-65.16561 88.10891,-23.56302 192.50654,-181.72021 172.01434,8.8703 z" />
    </g>
  </g>
</svg>

<?xml version="1.0" encoding="UTF-8"?>
<svg version="1.1" viewBox="0 0 748.12 431.57" xmlns="http://www.w3.org/2000/svg" xmlns:xlink="http://www.w3.org/1999/xlink">
 <defs>
  <filter id="f" x="-.034412" y="-.079319" width="1.0688" height="1.1586" style="color-interpolation-filters:sRGB">
   <feGaussianBlur stdDeviation="6.3662379"/>
  </filter>
  <filter id="e" x="-.037441" y="-.072156" width="1.0749" height="1.1443" style="color-interpolation-filters:sRGB">
   <feGaussianBlur stdDeviation="5.8391051"/>
  </filter>
  <filter id="g" x="0" y="0" width="1" height="1" style="color-interpolation-filters:sRGB">
   <feTurbulence baseFrequency="0.011000000000000003 0.047000000000000035" numOctaves="10" result="result1"/>
   <feComponentTransfer>
    <feFuncR tableValues="0 0.03 0.05" type="discrete"/>
    <feFuncG tableValues="0" type="discrete"/>
    <feFuncB tableValues="0" type="discrete"/>
    <feFuncA type="identity"/>
   </feComponentTransfer>
   <feComposite in2="SourceGraphic" operator="atop"/>
  </filter>
  <radialGradient id="c" cx="746.05" cy="204.78" r="222" gradientTransform="matrix(-1.496 -.019557 .0087598 -.67002 1265.4 884.89)" gradientUnits="userSpaceOnUse">
   <stop style="stop-color:#fff" offset="0"/>
   <stop style="stop-color:#fff;stop-opacity:0" offset="1"/>
  </radialGradient>
  <radialGradient id="b" cx="930.93" cy="534.58" r="189" gradientTransform="matrix(1.2871 -.52547 .2876 .70447 -1019.3 1104.6)" gradientUnits="userSpaceOnUse">
   <stop style="stop-color:#280b0b" offset="0"/>
   <stop style="stop-color:#280b0b" offset=".19787"/>
   <stop style="stop-color:#280b0b;stop-opacity:0" offset="1"/>
  </radialGradient>
  <clipPath id="i">
   <path d="m20 956c22-5 214.5-60 214.5-60l-96.5 137-109.5-18.5z" style="display:none;stroke-width:1px;stroke:#000"/>
   <path class="powerclip" d="m-1.4599 675h519.85v376.46h-519.85zm21.46 281 8.5 58.5 109.5 18.5 96.5-137s-192.5 55-214.5 60z" style="stroke-width:1px;stroke:#000"/>
  </clipPath>
  <clipPath id="h">
   <path d="m249 755c-50 8-229-10.017-229 72v133c0 28.999 5.9812 86.678 39 102 25.628 11.892 79.753 6.3796 80-28l1-139c1.5096-61.692 75.092-104.39 109-140z" style="display:none;fill:#502d16"/>
   <path class="powerclip" d="m-1.4604 675h519.85v381.78h-519.85zm250.46 80c-50 8-229-10.017-229 72v133c0 28.999 5.9812 86.678 39 102 25.628 11.892 79.753 6.3796 80-28l1-139c1.5096-61.692 75.092-104.39 109-140z" style="display:block;fill:#502d16"/>
  </clipPath>
  <radialGradient id="a" cx="217.83" cy="945.32" r="437.7" gradientTransform="matrix(.97885 -.012668 .0031545 .40648 213.31 115.31)" gradientUnits="userSpaceOnUse">
   <stop style="stop-color:#e6e6e6" offset="0"/>
   <stop style="stop-color:#e6e6e6" offset=".94504"/>
   <stop style="stop-color:#999" offset="1"/>
  </radialGradient>
 </defs>
 <g transform="translate(-90.51 -241.59)">
  <ellipse cx="464.57" cy="499.92" rx="374.06" ry="173.24" style="fill:url(#a)"/>
  <path transform="translate(207.89 -438.41)" d="m258.46 680c-0.60347 4e-3 -1.2079 8e-3 -1.8144 0.0137-136.07 1.1626-222.79 56.97-241.16 96.711-15.803 34.184-11.495 25.79-11.178 74.461 0.29141 44.704-6.6436 81.451 30.975 127.11 33.609 40.794 105.57 67.159 221.36 68.148 0.60654 0 1.211 0.01 1.8144 0.014 0.60348 0 1.2099-0.01 1.8164-0.014 115.8-0.9894 187.75-27.354 221.36-68.148 37.618-45.661 30.683-82.407 30.975-127.11 0.3173-48.671 4.6251-40.277-11.178-74.461-18.372-39.741-105.09-95.548-241.16-96.711-0.60654-5e-3 -1.2129-0.01-1.8164-0.0137z" clip-path="url(#i)" style="fill-rule:evenodd;fill:#502d16;filter:url(#g)" xlink:href="#d"/>
  <g transform="translate(207.89 -438.41)" clip-path="url(#h)">
   <path id="d" d="m258.46 680c-0.60347 4e-3 -1.2079 8e-3 -1.8144 0.0137-136.07 1.1626-222.79 56.97-241.16 96.711-15.803 34.184-11.495 25.79-11.178 74.461 0.29141 44.704-6.6436 81.451 30.975 127.11 33.609 40.794 105.57 67.159 221.36 68.148 0.60654 0 1.211 0.01 1.8144 0.014 0.60348 0 1.2099-0.01 1.8164-0.014 115.8-0.9894 187.75-27.354 221.36-68.148 37.618-45.661 30.683-82.407 30.975-127.11 0.3173-48.671 4.6251-40.277-11.178-74.461-18.372-39.741-105.09-95.548-241.16-96.711-0.60654-5e-3 -1.2129-0.01-1.8164-0.0137z" style="fill-rule:evenodd;fill:#28170b"/>
   <ellipse cx="258.38" cy="793.89" rx="222" ry="96.313" d="M 480.37651,793.88837 A 221.99864,96.313255 0 0 1 258.37787,890.20162 221.99864,96.313255 0 0 1 36.379227,793.88837 221.99864,96.313255 0 0 1 258.37787,697.57511 221.99864,96.313255 0 0 1 480.37651,793.88837 Z" style="fill:url(#c);filter:url(#f);mix-blend-mode:normal;stroke-width:1.0664"/>
   <path d="m494.14 936.37c-3.8716 36.008-63.766 85.88-144.52 93.433-219.09 20.492-227.17-0.9219-227.17-37.138-1e-5 -36.216 121.32-44.211 199.68-65.166 88.109-23.563 192.51-181.72 172.01 8.8703z" style="fill:url(#b);filter:url(#e)"/>
  </g>
 </g>
</svg>
